X:1699
T:Bog Cotton
M:4/4
L:1/8
K:D
A2F2 A4|B2G2 B4|c2B2 g2c2|e2d2 dedB|A2F2 A4|B2G2 B4|c2B2 g2c2|e2d2 d4||A
2f2 f3e|e2d2 d3c|B2g2 g3f|f2e2 e4|A2f2 f3e|e2d2 d3c|B2g2 B2c2|1e2d2 d2cB
:||2e2d2 d4|| 


